data/namdhinggo.svg

<svg width="70.759" height="14.697" viewBox="0 0 70.759 14.697" xmlns="http://www.w3.org/2000/svg"><path transform="translate(0 10.938) scale(.0068359 -.0068359)" d="m1232 1168q-69-10-103-28t-34-32v-1077l-122 38v1039q0 11-29.5 30t-106.5 30v49h395zm-137-1197q-58 7-93.5 24.5t-50.5 38.5l-724 1015q-39 56-85 83.5t-96 35.5v49h219q29 0 42.5-12.5t49.5-62.5l622-869q14-18 41.5-54.5t51-66.5 23.5-30zm-1049 29v49q70 9 103 27.5t33 31.5v1040l123 31v-1071q0-11 31.5-29.5t104.5-29.5v-49z"/><path transform="translate(8.7227 10.938) scale(.0068359 -.0068359)" d="m892 85q-79-55-139.5-84t-88.5-29q-34 0-56 49.5t-22 133.5v505q0 63-31 105.5t-117 40.5q-56-1-102.5-35.5t-41.5-91.5q1-9-22-20t-56-21-62.5-15.5-40.5-2.5l-15 40q29 67 97.5 123t156 90.5 173.5 34.5q110 0 167-57t57-155v-512q0-74 37-74 14 0 33.5 4.5t56.5 20.5zm-297 373q-100-16-156.5-32t-85.5-33-49-37q-24-25-39.5-57t-15.5-75q0-72 36.5-95t61.5-23q52 0 113.5 28.5t134.5 94.5l8-80q-88-95-175.5-136t-150.5-41q-47 0-94 21.5t-78.5 67.5-31.5 119q0 70 25 117.5t59 81.5q31 31 75.5 58t129 51 233.5 46z"/><path transform="translate(14.909 10.938) scale(.0068359 -.0068359)" d="m1119 0v48q68 18 96.5 31.5t28.5 26.5v485q0 116-24.5 153t-79.5 37q-56 0-126.5-57t-138.5-159v-459q0-13 27.5-25.5t101.5-32.5v-48h-416v48q68 18 96 31.5t28 26.5v485q0 116-23 153t-79 37q-58 0-123.5-56t-142.5-160v-459q0-14 33.5-29.5t93.5-28.5v-48h-419v48q62 17 95.5 29.5t33.5 28.5v561q0 50-7 73.5t-34 32.5-88 16v45q78 12 133 30.5t110 43.5l35-35 10-190q89 117 173.5 171t151.5 54q89 0 146-46.5t60-154.5l1-18q86 111 170 165t153 54q89 0 150.5-51.5t61.5-164.5v-586q0-13 29-25.5t103-32.5v-48z"/><path transform="translate(25.607 10.938) scale(.0068359 -.0068359)" d="m1009 87q-86-58-143-86.5t-83-28.5q-40 0-61.5 68t-21.5 225v933q0 70-6.5 102.5t-34.5 44-93 15.5v45q84 10 151 27.5t115 33.5l31-30v-1184q0-67 6-96t16-41q8-10 30.5-6t77.5 26zm-240 148q-67-83-123-142t-115-90-135-31q-73 0-148 53.5t-125 154-50 240.5q0 85 32.5 171t91.5 158 140.5 115.5 180.5 43.5q56 0 113.5-19.5t130.5-91.5q0-57-12.5-81.5t-42.5-42.5q-31 59-87.5 92t-126.5 33q-112 0-184.5-84.5t-72.5-258.5q0-105 37-182.5t91-120 106-42.5q69 0 133 53.5t130 117.5q12-6 22.5-22.5t13.5-23.5z"/><path transform="translate(32.594 10.938) scale(.0068359 -.0068359)" d="m628 0v48q129 34 129 58v478q0 115-27.5 151.5t-88.5 36.5-139.5-58.5-157.5-171.5v-436q0-14 34.5-29.5t94.5-28.5v-48h-421v48q62 17 95.5 29.5t33.5 28.5v1114q0 53-7 76.5t-34 32.5-88 16v46q86 14 142 30.5t113 44.5l37-34v-760q88 112 192 174t177 62q81 0 144-51.5t63-164.5v-586q0-13 28-25.5t102-32.5v-48z"/><path transform="translate(39.956 10.938) scale(.0068359 -.0068359)" d="m388 1193q0-56-34.5-94.5t-87.5-38.5q-92 0-92 94 0 57 36 95t85 38q43 0 68-23.5t25-70.5zm-322-1193v48q129 26 129 58v522q0 65-5.5 97.5t-32.5 45-91 18.5v45q65 12 133 31.5t120 42.5h39v-802q0-11 30.5-28t98.5-30v-48z"/><path transform="translate(43.641 10.938) scale(.0068359 -.0068359)" d="m628 0v48q129 34 129 58v481q0 113-25.5 149t-88.5 36q-54 0-131-51t-168-179v-436q0-14 34.5-29.5t94.5-28.5v-48h-421v48q62 17 95.5 29.5t33.5 28.5v561q0 49-6 72.5t-33 33-90 16.5v45q70 11 128.5 29.5t114.5 44.5l35-35 10-209q89 118 194.5 181t178.5 63q81 0 144-51.5t63-164.5v-586q0-13 28-25.5t102-32.5v-48z"/><path transform="translate(51.003 10.938) scale(.0068359 -.0068359)" d="m928-110q0-75-42.5-140t-112.5-115-154.5-78-169.5-28q-67 0-141 14.5t-138 45-104 79-40 117.5q0 35 21 73.5t83.5 87.5 184.5 112q0 0 20-2t41-8.5 23-19.5q-97-53-141.5-91t-56.5-65.5-12-49.5q0-50 43.5-92t115-67 156.5-25q122 0 192.5 60t70.5 150q0 32-22 58.5t-80 47-168 33.5q-184 22-258 63.5t-74 86.5q0 19 33.5 63t142.5 115l143 16q-83-57-112-95.5t-29-46.5q0-14 17.5-27.5t67.5-25.5 147-24q140-16 216.5-50t106.5-78 30-94zm18 988q-10-25-22-50t-32-48q-50-9-103-13.5t-133-2.5l-42 77q116 7 192 29t119 38zm-149-272q0-97-54.5-170.5t-140.5-115-181-41.5q-141 0-235 79.5t-94 210.5q0 93 53.5 170t139.5 123 181 46q94 0 169-41.5t118.5-110 43.5-150.5zm-154-38q0 99-61 170.5t-179 71.5q-31 0-67.5-21t-63-62.5-26.5-103.5q0-99 58-170t181-71q56 0 107 47t51 139z"/><path transform="translate(57.531 10.938) scale(.0068359 -.0068359)" d="m928-110q0-75-42.5-140t-112.5-115-154.5-78-169.5-28q-67 0-141 14.5t-138 45-104 79-40 117.5q0 35 21 73.5t83.5 87.5 184.5 112q0 0 20-2t41-8.5 23-19.5q-97-53-141.5-91t-56.5-65.5-12-49.5q0-50 43.5-92t115-67 156.5-25q122 0 192.5 60t70.5 150q0 32-22 58.5t-80 47-168 33.5q-184 22-258 63.5t-74 86.5q0 19 33.5 63t142.5 115l143 16q-83-57-112-95.5t-29-46.5q0-14 17.5-27.5t67.5-25.5 147-24q140-16 216.5-50t106.5-78 30-94zm18 988q-10-25-22-50t-32-48q-50-9-103-13.5t-133-2.5l-42 77q116 7 192 29t119 38zm-149-272q0-97-54.5-170.5t-140.5-115-181-41.5q-141 0-235 79.5t-94 210.5q0 93 53.5 170t139.5 123 181 46q94 0 169-41.5t118.5-110 43.5-150.5zm-154-38q0 99-61 170.5t-179 71.5q-31 0-67.5-21t-63-62.5-26.5-103.5q0-99 58-170t181-71q56 0 107 47t51 139z"/><path transform="translate(64.06 10.938) scale(.0068359 -.0068359)" d="m907 459q0-94-34.5-181.5t-95-156.5-139-109-166.5-40q-120 0-210 58.5t-139.5 160-49.5 229.5q0 94 33.5 181.5t93 156.5 139 109.5 170.5 40.5q121 0 210-58.5t138.5-160 49.5-230.5zm-169-32q0 100-37.5 184.5t-96 136.5-122.5 52q-90 0-142.5-46.5t-74.5-126.5-22-180q0-99 40-183t99-134.5 117-50.5q127 0 183 94t56 254z"/></svg>

<?xml version="1.0" encoding="utf-8" ?>
<svg baseProfile="tiny" height="100%" version="1.2" width="100%" xmlns="http://www.w3.org/2000/svg" xmlns:ev="http://www.w3.org/2001/xml-events" xmlns:xlink="http://www.w3.org/1999/xlink"><defs /><g><path d="M1232 1168Q1163 1158 1129.0 1140.0Q1095 1122 1095 1108V31L973 69V1108Q973 1119 943.5 1138.0Q914 1157 837 1168V1217H1232ZM1095 -29Q1037 -22 1001.5 -4.5Q966 13 951 34L227 1049Q188 1105 142.0 1132.5Q96 1160 46 1168V1217H265Q294 1217 307.5 1204.5Q321 1192 357 1142L979 273Q993 255 1020.5 218.5Q1048 182 1071.5 152.0Q1095 122 1095 122ZM46 0V49Q116 58 149.0 76.5Q182 95 182 108V1148L305 1179V108Q305 97 336.5 78.5Q368 60 441 49V0Z" transform="translate(0.0, 72) scale(0.03515625, -0.03515625)" /><path d="M892 85Q813 30 752.5 1.0Q692 -28 664 -28Q630 -28 608.0 21.5Q586 71 586 155V660Q586 723 555.0 765.5Q524 808 438 806Q382 805 335.5 770.5Q289 736 294 679Q295 670 272.0 659.0Q249 648 216.0 638.0Q183 628 153.5 622.5Q124 617 113 620L98 660Q127 727 195.5 783.0Q264 839 351.5 873.5Q439 908 525 908Q635 908 692.0 851.0Q749 794 749 696V184Q749 110 786 110Q800 110 819.5 114.5Q839 119 876 135ZM595 458Q495 442 438.5 426.0Q382 410 353.0 393.0Q324 376 304 356Q280 331 264.5 299.0Q249 267 249 224Q249 152 285.5 129.0Q322 106 347 106Q399 106 460.5 134.5Q522 163 595 229L603 149Q515 54 427.5 13.0Q340 -28 277 -28Q230 -28 183.0 -6.5Q136 15 104.5 61.0Q73 107 73 180Q73 250 98.0 297.5Q123 345 157 379Q188 410 232.5 437.0Q277 464 361.5 488.0Q446 512 595 534Z" transform="translate(44.859375, 72) scale(0.03515625, -0.03515625)" /><path d="M1119 0V48Q1187 66 1215.5 79.5Q1244 93 1244 106V591Q1244 707 1219.5 744.0Q1195 781 1140 781Q1084 781 1013.5 724.0Q943 667 875 565V106Q875 93 902.5 80.5Q930 68 1004 48V0H588V48Q656 66 684.0 79.5Q712 93 712 106V591Q712 707 689.0 744.0Q666 781 610 781Q552 781 486.5 725.0Q421 669 344 565V106Q344 92 377.5 76.5Q411 61 471 48V0H52V48Q114 65 147.5 77.5Q181 90 181 106V667Q181 717 174.0 740.5Q167 764 140.0 773.0Q113 782 52 789V834Q130 846 185.0 864.5Q240 883 295 908L330 873L340 683Q429 800 513.5 854.0Q598 908 665 908Q754 908 811.0 861.5Q868 815 871 707L872 689Q958 800 1042.0 854.0Q1126 908 1195 908Q1284 908 1345.5 856.5Q1407 805 1407 692V106Q1407 93 1436.0 80.5Q1465 68 1539 48V0Z" transform="translate(76.67578125, 72) scale(0.03515625, -0.03515625)" /><path d="M1009 87Q923 29 866.0 0.5Q809 -28 783 -28Q743 -28 721.5 40.0Q700 108 700 265V1198Q700 1268 693.5 1300.5Q687 1333 659.0 1344.5Q631 1356 566 1360V1405Q650 1415 717.0 1432.5Q784 1450 832 1466L863 1436V252Q863 185 869.0 156.0Q875 127 885 115Q893 105 915.5 109.0Q938 113 993 135ZM769 235Q702 152 646.0 93.0Q590 34 531.0 3.0Q472 -28 396 -28Q323 -28 248.0 25.5Q173 79 123.0 179.5Q73 280 73 420Q73 505 105.5 591.0Q138 677 197.0 749.0Q256 821 337.5 864.5Q419 908 518 908Q574 908 631.5 888.5Q689 869 762 797Q762 740 749.5 715.5Q737 691 707 673Q676 732 619.5 765.0Q563 798 493 798Q381 798 308.5 713.5Q236 629 236 455Q236 350 273.0 272.5Q310 195 364.0 152.5Q418 110 470 110Q539 110 603.0 163.5Q667 217 733 281Q745 275 755.5 258.5Q766 242 769 235Z" transform="translate(131.6953125, 72) scale(0.03515625, -0.03515625)" /><path d="M628 0V48Q757 82 757 106V584Q757 699 729.5 735.5Q702 772 641 772Q580 772 501.5 713.5Q423 655 344 542V106Q344 92 378.5 76.5Q413 61 473 48V0H52V48Q114 65 147.5 77.5Q181 90 181 106V1220Q181 1273 174.0 1296.5Q167 1320 140.0 1329.0Q113 1338 52 1345V1391Q138 1405 194.0 1421.5Q250 1438 307 1466L344 1432V672Q432 784 536.0 846.0Q640 908 713 908Q794 908 857.0 856.5Q920 805 920 692V106Q920 93 948.0 80.5Q976 68 1050 48V0Z" transform="translate(167.625, 72) scale(0.03515625, -0.03515625)" /><path d="M388 1193Q388 1137 353.5 1098.5Q319 1060 266 1060Q174 1060 174 1154Q174 1211 210.0 1249.0Q246 1287 295 1287Q338 1287 363.0 1263.5Q388 1240 388 1193ZM66 0V48Q195 74 195 106V628Q195 693 189.5 725.5Q184 758 157.0 770.5Q130 783 66 789V834Q131 846 199.0 865.5Q267 885 319 908H358V106Q358 95 388.5 78.0Q419 61 487 48V0Z" transform="translate(205.48828125, 72) scale(0.03515625, -0.03515625)" /><path d="M628 0V48Q757 82 757 106V587Q757 700 731.5 736.0Q706 772 643 772Q589 772 512.0 721.0Q435 670 344 542V106Q344 92 378.5 76.5Q413 61 473 48V0H52V48Q114 65 147.5 77.5Q181 90 181 106V667Q181 716 175.0 739.5Q169 763 142.0 772.5Q115 782 52 789V834Q122 845 180.5 863.5Q239 882 295 908L330 873L340 664Q429 782 534.5 845.0Q640 908 713 908Q794 908 857.0 856.5Q920 805 920 692V106Q920 93 948.0 80.5Q976 68 1050 48V0Z" transform="translate(224.4375, 72) scale(0.03515625, -0.03515625)" /><path d="M928 -110Q928 -185 885.5 -250.0Q843 -315 773.0 -365.0Q703 -415 618.5 -443.0Q534 -471 449 -471Q382 -471 308.0 -456.5Q234 -442 170.0 -411.5Q106 -381 66.0 -332.5Q26 -284 26 -215Q26 -180 47.0 -141.5Q68 -103 130.5 -54.0Q193 -5 315 58Q315 58 335.0 56.0Q355 54 376.0 47.5Q397 41 399 28Q302 -25 257.5 -63.0Q213 -101 201.0 -128.5Q189 -156 189 -178Q189 -228 232.5 -270.0Q276 -312 347.5 -337.0Q419 -362 504 -362Q626 -362 696.5 -302.0Q767 -242 767 -152Q767 -120 745.0 -93.5Q723 -67 665.0 -46.5Q607 -26 497 -13Q313 9 239.0 50.5Q165 92 165 137Q165 156 198.5 200.0Q232 244 341 315L484 331Q401 274 372.0 235.5Q343 197 343 189Q343 175 360.5 161.5Q378 148 428.0 136.0Q478 124 575 112Q715 96 791.5 62.0Q868 28 898.0 -16.0Q928 -60 928 -110ZM946 878Q936 853 924.0 828.0Q912 803 892 780Q842 771 789.0 766.5Q736 762 656 764L614 841Q730 848 806.0 870.0Q882 892 925 908ZM797 606Q797 509 742.5 435.5Q688 362 602.0 320.5Q516 279 421 279Q280 279 186.0 358.5Q92 438 92 569Q92 662 145.5 739.0Q199 816 285.0 862.0Q371 908 466 908Q560 908 635.0 866.5Q710 825 753.5 756.5Q797 688 797 606ZM643 568Q643 667 582.0 738.5Q521 810 403 810Q372 810 335.5 789.0Q299 768 272.5 726.5Q246 685 246 623Q246 524 304.0 453.0Q362 382 485 382Q541 382 592.0 429.0Q643 476 643 568Z" transform="translate(262.30078125, 72) scale(0.03515625, -0.03515625)" /><path d="M928 -110Q928 -185 885.5 -250.0Q843 -315 773.0 -365.0Q703 -415 618.5 -443.0Q534 -471 449 -471Q382 -471 308.0 -456.5Q234 -442 170.0 -411.5Q106 -381 66.0 -332.5Q26 -284 26 -215Q26 -180 47.0 -141.5Q68 -103 130.5 -54.0Q193 -5 315 58Q315 58 335.0 56.0Q355 54 376.0 47.5Q397 41 399 28Q302 -25 257.5 -63.0Q213 -101 201.0 -128.5Q189 -156 189 -178Q189 -228 232.5 -270.0Q276 -312 347.5 -337.0Q419 -362 504 -362Q626 -362 696.5 -302.0Q767 -242 767 -152Q767 -120 745.0 -93.5Q723 -67 665.0 -46.5Q607 -26 497 -13Q313 9 239.0 50.5Q165 92 165 137Q165 156 198.5 200.0Q232 244 341 315L484 331Q401 274 372.0 235.5Q343 197 343 189Q343 175 360.5 161.5Q378 148 428.0 136.0Q478 124 575 112Q715 96 791.5 62.0Q868 28 898.0 -16.0Q928 -60 928 -110ZM946 878Q936 853 924.0 828.0Q912 803 892 780Q842 771 789.0 766.5Q736 762 656 764L614 841Q730 848 806.0 870.0Q882 892 925 908ZM797 606Q797 509 742.5 435.5Q688 362 602.0 320.5Q516 279 421 279Q280 279 186.0 358.5Q92 438 92 569Q92 662 145.5 739.0Q199 816 285.0 862.0Q371 908 466 908Q560 908 635.0 866.5Q710 825 753.5 756.5Q797 688 797 606ZM643 568Q643 667 582.0 738.5Q521 810 403 810Q372 810 335.5 789.0Q299 768 272.5 726.5Q246 685 246 623Q246 524 304.0 453.0Q362 382 485 382Q541 382 592.0 429.0Q643 476 643 568Z" transform="translate(295.875, 72) scale(0.03515625, -0.03515625)" /><path d="M907 459Q907 365 872.5 277.5Q838 190 777.5 121.0Q717 52 638.5 12.0Q560 -28 472 -28Q352 -28 262.0 30.5Q172 89 122.5 190.5Q73 292 73 420Q73 514 106.5 601.5Q140 689 199.5 758.0Q259 827 338.5 867.5Q418 908 509 908Q630 908 719.0 849.5Q808 791 857.5 689.5Q907 588 907 459ZM738 427Q738 527 700.5 611.5Q663 696 604.5 748.0Q546 800 482 800Q392 800 339.5 753.5Q287 707 265.0 627.0Q243 547 243 447Q243 348 283.0 264.0Q323 180 382.0 129.5Q441 79 499 79Q626 79 682.0 173.0Q738 267 738 427Z" transform="translate(329.44921875, 72) scale(0.03515625, -0.03515625)" /></g></svg>
